paymentMethods/solana.svg

<svg width="128" height="64" viewBox="0 0 128 64" fill="none" xmlns="http://www.w3.org/2000/svg">
<rect width="128" height="64" rx="6" fill="white"/>
<path d="M25.2639 36.9949L22.0679 40.42C21.9986 40.4956 21.9141 40.5557 21.82 40.5965C21.7253 40.6382 21.623 40.66 21.5195 40.6603H6.36579C6.2951 40.6563 6.2266 40.6343 6.16675 40.5965C6.10664 40.5556 6.05968 40.4982 6.03155 40.4312C6.00221 40.3666 5.99305 40.2946 6.00526 40.2247C6.01728 40.1538 6.04845 40.0876 6.09539 40.0331L9.29139 36.6081C9.36066 36.5324 9.44513 36.4723 9.53925 36.4315C9.63394 36.3898 9.73622 36.3681 9.8397 36.3677H24.9935C25.0641 36.3717 25.1326 36.3937 25.1925 36.4315C25.2526 36.4724 25.2996 36.5298 25.3277 36.5968C25.357 36.6614 25.3662 36.7334 25.354 36.8033C25.3429 36.8745 25.3116 36.941 25.2639 36.9949V36.9949ZM22.0679 30.0771C21.9998 29.9992 21.9151 29.9376 21.82 29.8968C21.7257 29.8543 21.6229 29.8338 21.5195 29.8367H6.36579C6.29448 29.8372 6.22502 29.8595 6.16675 29.9006C6.10812 29.9414 6.06145 29.9972 6.03155 30.0621C6.00277 30.1282 5.99365 30.2012 6.00526 30.2724C6.017 30.3422 6.04824 30.4073 6.09539 30.4602L9.29139 33.9228C9.35947 34.0007 9.44418 34.0623 9.53925 34.1031C9.63357 34.1456 9.73629 34.1661 9.8397 34.1632H24.9935C25.0649 34.1635 25.1346 34.1411 25.1925 34.0993C25.2538 34.0615 25.3012 34.0048 25.3277 33.9378C25.356 33.8723 25.365 33.8 25.3537 33.7295C25.3424 33.659 25.3112 33.5932 25.2639 33.5397L22.0679 30.0771ZM6.36579 27.6322H21.5195C21.623 27.6319 21.7253 27.6101 21.82 27.5684C21.9141 27.5276 21.9986 27.4675 22.0679 27.3919L25.2639 23.9668C25.3116 23.9129 25.3429 23.8464 25.354 23.7752C25.3662 23.7053 25.357 23.6333 25.3277 23.5687C25.2996 23.5017 25.2526 23.4443 25.1925 23.4034C25.1326 23.3656 25.0641 23.3436 24.9935 23.3396H9.8397C9.73622 23.34 9.63394 23.3617 9.53925 23.4034C9.44513 23.4442 9.36066 23.5043 9.29139 23.58L6.09539 27.005C6.04907 27.0599 6.01799 27.1259 6.00526 27.1966C5.99365 27.2678 6.00277 27.3408 6.03155 27.4069C6.06145 27.4718 6.10812 27.5275 6.16675 27.5684C6.2266 27.6062 6.2951 27.6282 6.36579 27.6322V27.6322Z" fill="url(#paint0_linear_10_13116)"/>
<path d="M43.6399 30.6517H35.5391V27.9589H45.7393V25.2662H35.5203C35.1686 25.262 34.8197 25.3298 34.4951 25.4652C34.0046 25.6661 33.5856 26.0091 33.2917 26.4502C32.9979 26.8913 32.8428 27.4102 32.8464 27.9401V30.6704C32.8454 31.0211 32.9135 31.3685 33.0468 31.6929C33.18 32.0172 33.3759 32.3121 33.6231 32.5608C33.8704 32.8094 34.1642 33.0069 34.4878 33.142C34.8114 33.2771 35.1584 33.3472 35.5091 33.3482H43.6211V36.0409H33.0379V38.7337H43.6211C43.9713 38.7347 44.3182 38.6667 44.6421 38.5336C44.966 38.4005 45.2605 38.2049 45.5088 37.958C45.7571 37.7111 45.9543 37.4177 46.0892 37.0946C46.2242 36.7714 46.2941 36.4249 46.2951 36.0747V33.3294C46.2971 32.6225 46.0187 31.9437 45.521 31.4417C45.0232 30.9398 44.3468 30.6556 43.6399 30.6517Z" fill="black"/>
<path d="M59.3156 25.2662H51.1923C50.4831 25.2662 49.803 25.548 49.3015 26.0494C48.8 26.5509 48.5183 27.231 48.5183 27.9402V36.0598C48.5183 36.7689 48.8 37.4491 49.3015 37.9505C49.803 38.452 50.4831 38.7337 51.1923 38.7337H59.3156C59.6673 38.7374 60.0161 38.6697 60.3409 38.5347C60.8277 38.3342 61.2442 37.9938 61.5377 37.5566C61.8311 37.1195 61.9884 36.6051 61.9896 36.0785V27.9402C61.9789 27.2343 61.6938 26.5604 61.1946 26.0612C60.6954 25.562 60.0215 25.2769 59.3156 25.2662V25.2662ZM59.3156 36.041H51.2336V27.959H59.3156V36.041Z" fill="black"/>
<path d="M87.7867 25.2662H79.8586C79.5069 25.262 79.158 25.3298 78.8334 25.4652C78.3434 25.6672 77.9247 26.0104 77.6304 26.4511C77.3361 26.8919 77.1797 27.4102 77.1809 27.9401V38.7337H79.8774V34.3096H87.7641V38.7337H90.4531V27.9401C90.4531 27.231 90.1714 26.5508 89.6699 26.0494C89.1685 25.5479 88.4883 25.2662 87.7792 25.2662H87.7867ZM87.7867 31.6168H79.8999V27.9589H87.7867V31.6168Z" fill="black"/>
<path d="M119.326 25.2662H111.417C111.065 25.262 110.716 25.3298 110.392 25.4652C109.901 25.6665 109.483 26.0097 109.189 26.4506C108.895 26.8916 108.74 27.4103 108.743 27.9401V38.7337H111.417V34.3096H119.304V38.7337H122V27.9401C121.989 27.2343 121.704 26.5603 121.205 26.0611C120.706 25.562 120.032 25.2768 119.326 25.2662ZM119.326 31.6168H111.417V27.9589H119.304L119.326 31.6168Z" fill="black"/>
<path d="M103.632 36.0409H102.554L98.7155 26.4192C98.5882 26.0789 98.3603 25.7854 98.062 25.5779C97.763 25.3715 97.4075 25.2627 97.0442 25.2662H94.6482C94.4149 25.2657 94.1838 25.3112 93.9681 25.4C93.7524 25.4888 93.5563 25.6192 93.391 25.7838C93.2257 25.9484 93.0944 26.144 93.0047 26.3593C92.915 26.5747 92.8685 26.8056 92.868 27.0388V38.7337H95.5608V27.9589H96.6386L100.488 37.5807C100.614 37.9201 100.841 38.2125 101.139 38.4187C101.436 38.6249 101.79 38.7348 102.152 38.7337H104.548C104.782 38.737 105.015 38.6923 105.231 38.6023C105.448 38.5168 105.646 38.3892 105.814 38.2267C106.147 37.8912 106.336 37.4381 106.339 36.9648V25.2662H103.643L103.632 36.0409Z" fill="black"/>
<path d="M67.0784 25.2662H64.3856V36.0598C64.3846 36.4099 64.4526 36.7569 64.5857 37.0807C64.7188 37.4046 64.9144 37.6991 65.1613 37.9474C65.4082 38.1957 65.7016 38.393 66.0247 38.5279C66.3479 38.6628 66.6944 38.7327 67.0446 38.7337H75.1604V36.041H67.0784V25.2662Z" fill="black"/>
<defs>
<linearGradient id="paint0_linear_10_13116" x1="7.63518" y1="41.0734" x2="23.5213" y2="23.1556" gradientUnits="userSpaceOnUse">
<stop offset="0.08" stop-color="#9945FF"/>
<stop offset="0.3" stop-color="#8752F3"/>
<stop offset="0.5" stop-color="#5497D5"/>
<stop offset="0.6" stop-color="#43B4CA"/>
<stop offset="0.72" stop-color="#28E0B9"/>
<stop offset="0.97" stop-color="#19FB9B"/>
</linearGradient>
</defs>
</svg>

<svg xmlns="http://www.w3.org/2000/svg" width="128" height="64" fill="none"><rect width="128" height="64" fill="#fff" rx="6"/><path fill="url(#a)" d="m25.264 36.995-3.196 3.425a.751.751 0 0 1-.548.24H6.366a.417.417 0 0 1-.2-.063.376.376 0 0 1-.134-.166.353.353 0 0 1-.027-.206.395.395 0 0 1 .09-.192l3.196-3.425a.753.753 0 0 1 .548-.24h15.155c.07.004.139.026.198.063.06.041.108.099.136.166a.377.377 0 0 1-.064.398Zm-3.196-6.918a.691.691 0 0 0-.248-.18.685.685 0 0 0-.3-.06H6.366a.35.35 0 0 0-.2.064.375.375 0 0 0-.071.56l3.196 3.462c.068.078.153.14.248.18a.685.685 0 0 0 .3.06h15.155a.338.338 0 0 0 .198-.064.375.375 0 0 0 .071-.56l-3.195-3.462ZM6.366 27.632H21.52a.751.751 0 0 0 .548-.24l3.196-3.425a.377.377 0 0 0-.27-.627H9.84a.753.753 0 0 0-.549.24l-3.196 3.425a.375.375 0 0 0 .27.627Z"/><path fill="#000" d="M43.64 30.652h-8.1v-2.693h10.2v-2.693H35.52c-.351-.004-.7.064-1.025.2a2.655 2.655 0 0 0-1.649 2.474v2.73a2.67 2.67 0 0 0 2.663 2.678h8.112v2.693H33.038v2.693H43.62a2.666 2.666 0 0 0 2.674-2.66V33.33a2.67 2.67 0 0 0-2.655-2.677ZM59.316 25.266h-8.124a2.674 2.674 0 0 0-2.674 2.674v8.12a2.674 2.674 0 0 0 2.674 2.674h8.124a2.663 2.663 0 0 0 2.674-2.655V27.94a2.715 2.715 0 0 0-2.674-2.674Zm0 10.775h-8.082v-8.082h8.082v8.082ZM87.787 25.266h-7.928a2.67 2.67 0 0 0-2.678 2.674v10.794h2.696V34.31h7.887v4.424h2.69V27.94a2.674 2.674 0 0 0-2.675-2.674h.008Zm0 6.35H79.9V27.96h7.887v3.658ZM119.326 25.266h-7.909a2.657 2.657 0 0 0-2.674 2.674v10.794h2.674V34.31h7.887v4.424H122V27.94a2.718 2.718 0 0 0-2.674-2.674Zm0 6.35h-7.909V27.96h7.887l.022 3.658ZM103.632 36.04h-1.078l-3.838-9.62a1.762 1.762 0 0 0-1.671-1.153h-2.397a1.777 1.777 0 0 0-1.78 1.772v11.695h2.693V27.959h1.078l3.849 9.622a1.766 1.766 0 0 0 1.664 1.153h2.396c.234.003.467-.042.683-.132.217-.085.415-.213.583-.375.333-.336.522-.789.525-1.262V25.266h-2.696l-.011 10.775ZM67.078 25.266h-2.692V36.06a2.666 2.666 0 0 0 2.659 2.674h8.115V36.04h-8.082V25.266Z"/><defs><linearGradient id="a" x1="7.635" x2="23.521" y1="41.073" y2="23.156" gradientUnits="userSpaceOnUse"><stop offset=".08" stop-color="#9945FF"/><stop offset=".3" stop-color="#8752F3"/><stop offset=".5" stop-color="#5497D5"/><stop offset=".6" stop-color="#43B4CA"/><stop offset=".72" stop-color="#28E0B9"/><stop offset=".97" stop-color="#19FB9B"/></linearGradient></defs></svg>
